svg/bus_stop.svg

<svg xmlns="http://www.w3.org/2000/svg" viewBox="0 0 24 24"><path d="M22 7v9c0 .71-.38 1.36-1 1.72v1.53c0 .41-.34.75-.75.75h-.5c-.41 0-.75-.34-.75-.75V18h-7v1.25c0 .41-.34.75-.75.75h-.5c-.41 0-.75-.34-.75-.75v-1.53c-.61-.36-1-1.01-1-1.72V7c0-3 3-3 6.5-3S22 4 22 7m-9 8c0-.55-.45-1-1-1s-1 .45-1 1 .45 1 1 1 1-.45 1-1m7 0c0-.55-.45-1-1-1s-1 .45-1 1 .45 1 1 1 1-.45 1-1m0-8h-9v4h9zM7 9.5C6.97 8.12 5.83 7 4.45 7.05A2.5 2.5 0 0 0 2 9.6 2.51 2.51 0 0 0 4 12v8h1v-8c1.18-.24 2-1.29 2-2.5"/></svg>

<?xml version="1.0" encoding="UTF-8"?><!DOCTYPE svg PUBLIC "-//W3C//DTD SVG 1.1//EN" "http://www.w3.org/Graphics/SVG/1.1/DTD/svg11.dtd"><svg xmlns="http://www.w3.org/2000/svg" xmlns:xlink="http://www.w3.org/1999/xlink" version="1.1" id="mdi-bus-stop" width="24" height="24" viewBox="0 0 24 24"><path d="M22 7V16C22 16.71 21.62 17.36 21 17.72V19.25C21 19.66 20.66 20 20.25 20H19.75C19.34 20 19 19.66 19 19.25V18H12V19.25C12 19.66 11.66 20 11.25 20H10.75C10.34 20 10 19.66 10 19.25V17.72C9.39 17.36 9 16.71 9 16V7C9 4 12 4 15.5 4S22 4 22 7M13 15C13 14.45 12.55 14 12 14S11 14.45 11 15 11.45 16 12 16 13 15.55 13 15M20 15C20 14.45 19.55 14 19 14S18 14.45 18 15 18.45 16 19 16 20 15.55 20 15M20 7H11V11H20V7M7 9.5C6.97 8.12 5.83 7 4.45 7.05C3.07 7.08 1.97 8.22 2 9.6C2.03 10.77 2.86 11.77 4 12V20H5V12C6.18 11.76 7 10.71 7 9.5Z" /></svg>
